libs/icons/src/svg/automations.svg

<svg width="16" height="16" viewBox="0 0 16 16" fill="none" xmlns="http://www.w3.org/2000/svg">
<g clip-path="url(#clip0_3_3716)">
<path fill-rule="evenodd" clip-rule="evenodd" d="M8.00004 0.666668C8.36823 0.666668 8.66671 0.965145 8.66671 1.33333V15.3333C8.66671 15.7015 8.36823 16 8.00004 16C7.63185 16 7.33337 15.7015 7.33337 15.3333V1.33333C7.33337 0.965145 7.63185 0.666668 8.00004 0.666668Z" fill="#202327"/>
<path fill-rule="evenodd" clip-rule="evenodd" d="M3.33335 6C3.70154 6 4.00002 6.29848 4.00002 6.66667V10.6667C4.00002 11.1971 4.21073 11.7058 4.58581 12.0809C4.96088 12.456 5.46959 12.6667 6.00002 12.6667H8.00002C8.36821 12.6667 8.66669 12.9651 8.66669 13.3333C8.66669 13.7015 8.36821 14 8.00002 14H6.00002C5.11597 14 4.26812 13.6488 3.643 13.0237C3.01788 12.3986 2.66669 11.5507 2.66669 10.6667V6.66667C2.66669 6.29848 2.96516 6 3.33335 6Z" fill="#202327"/>
<path fill-rule="evenodd" clip-rule="evenodd" d="M12.6667 4C13.0349 4 13.3334 4.29848 13.3334 4.66667V8C13.3334 8.88405 12.9822 9.7319 12.3571 10.357C11.7319 10.9821 10.8841 11.3333 10 11.3333H8.00004C7.63185 11.3333 7.33337 11.0349 7.33337 10.6667C7.33337 10.2985 7.63185 10 8.00004 10H10C10.5305 10 11.0392 9.78929 11.4143 9.41421C11.7893 9.03914 12 8.53043 12 8V4.66667C12 4.29848 12.2985 4 12.6667 4Z" fill="#202327"/>
<path fill-rule="evenodd" clip-rule="evenodd" d="M7.52864 0.86193C7.78899 0.601581 8.2111 0.601581 8.47145 0.86193L10.4714 2.86193C10.7318 3.12228 10.7318 3.54439 10.4714 3.80474C10.2111 4.06509 9.78899 4.06509 9.52864 3.80474L8.00004 2.27614L6.47145 3.80474C6.2111 4.06509 5.78899 4.06509 5.52864 3.80474C5.26829 3.54439 5.26829 3.12228 5.52864 2.86193L7.52864 0.86193Z" fill="#202327"/>
<path fill-rule="evenodd" clip-rule="evenodd" d="M2.86195 6.19526C3.1223 5.93491 3.54441 5.93491 3.80476 6.19526L5.80476 8.19526C6.06511 8.45561 6.06511 8.87772 5.80476 9.13807C5.54441 9.39842 5.1223 9.39842 4.86195 9.13807L3.33335 7.60948L1.80476 9.13807C1.54441 9.39842 1.1223 9.39842 0.861949 9.13807C0.6016 8.87772 0.6016 8.45561 0.861949 8.19526L2.86195 6.19526Z" fill="#202327"/>
<path fill-rule="evenodd" clip-rule="evenodd" d="M12.1953 4.19526C12.4556 3.93491 12.8777 3.93491 13.1381 4.19526L15.1381 6.19526C15.3984 6.45561 15.3984 6.87772 15.1381 7.13807C14.8777 7.39842 14.4556 7.39842 14.1953 7.13807L12.6667 5.60948L11.1381 7.13807C10.8777 7.39842 10.4556 7.39842 10.1953 7.13807C9.93491 6.87772 9.93491 6.45561 10.1953 6.19526L12.1953 4.19526Z" fill="#202327"/>
</g>
<defs>
<clipPath id="clip0_3_3716">
<rect width="16" height="16" fill="white"/>
</clipPath>
</defs>
</svg>

<svg xmlns="http://www.w3.org/2000/svg" viewBox="0 0 16 16" class="sageicon"><path fill-rule="evenodd" d="M8 .667c.368 0 .667.298.667.666v14a.667.667 0 1 1-1.334 0v-14c0-.368.299-.666.667-.666Z"/><path fill-rule="evenodd" d="M3.333 6c.369 0 .667.298.667.667v4a2 2 0 0 0 2 2h2A.667.667 0 1 1 8 14H6a3.333 3.333 0 0 1-3.333-3.333v-4c0-.369.298-.667.666-.667Z"/><path fill-rule="evenodd" d="M12.667 4c.368 0 .666.298.666.667V8A3.333 3.333 0 0 1 10 11.333H8A.667.667 0 1 1 8 10h2a2 2 0 0 0 2-2V4.667c0-.369.299-.667.667-.667ZM7.529.862c.26-.26.682-.26.942 0l2 2a.667.667 0 0 1-.942.943L8 2.276 6.471 3.805a.667.667 0 1 1-.942-.943l2-2ZM2.862 6.195c.26-.26.682-.26.943 0l2 2a.667.667 0 1 1-.943.943L3.333 7.61 1.805 9.14a.667.667 0 0 1-.943-.944l2-2Z"/><path fill-rule="evenodd" d="M12.195 4.195c.26-.26.683-.26.943 0l2 2a.667.667 0 0 1-.943.943L12.667 5.61l-1.529 1.53a.667.667 0 1 1-.943-.944l2-2Z"/></svg>
